styles/1/Numix/48/places/red-folder-templates.svg

<?xml version="1.0" encoding="UTF-8" standalone="no"?>
<!-- Created with Inkscape (http://www.inkscape.org/) -->

<svg
   xmlns:dc="http://purl.org/dc/elements/1.1/"
   xmlns:cc="http://creativecommons.org/ns#"
   xmlns:rdf="http://www.w3.org/1999/02/22-rdf-syntax-ns#"
   xmlns:svg="http://www.w3.org/2000/svg"
   xmlns="http://www.w3.org/2000/svg"
   xmlns:sodipodi="http://sodipodi.sourceforge.net/DTD/sodipodi-0.dtd"
   xmlns:inkscape="http://www.inkscape.org/namespaces/inkscape"
   width="48"
   height="48"
   id="svg2"
   version="1.1"
   inkscape:version="0.91 r"
   sodipodi:docname="red-folder-templates.svg">
  <defs
     id="defs4" />
  <sodipodi:namedview
     id="base"
     pagecolor="#ffffff"
     bordercolor="#666666"
     borderopacity="1.0"
     inkscape:pageopacity="0.0"
     inkscape:pageshadow="2"
     inkscape:zoom="17.627784"
     inkscape:cx="23.66817"
     inkscape:cy="17.959875"
     inkscape:document-units="px"
     inkscape:current-layer="layer1"
     showgrid="true"
     inkscape:window-width="1280"
     inkscape:window-height="998"
     inkscape:window-x="0"
     inkscape:window-y="0"
     inkscape:window-maximized="1">
    <inkscape:grid
       type="xygrid"
       id="grid2990"
       empspacing="5"
       visible="true"
       enabled="true"
       snapvisiblegridlinesonly="true" />
  </sodipodi:namedview>
  <metadata
     id="metadata7">
    <rdf:RDF>
      <cc:Work
         rdf:about="">
        <dc:format>image/svg+xml</dc:format>
        <dc:type
           rdf:resource="http://purl.org/dc/dcmitype/StillImage" />
        <dc:title />
      </cc:Work>
    </rdf:RDF>
  </metadata>
  <g
     inkscape:label="Body"
     inkscape:groupmode="layer"
     id="layer1"
     transform="translate(0,-1004.3622)">
    <path
       style="font-size:medium;font-style:normal;font-variant:normal;font-weight:normal;font-stretch:normal;text-indent:0;text-align:start;text-decoration:none;line-height:normal;letter-spacing:normal;word-spacing:normal;text-transform:none;direction:ltr;block-progression:tb;writing-mode:lr-tb;text-anchor:start;baseline-shift:baseline;color:#000000;fill:#ef5350;fill-opacity:1;fill-rule:nonzero;stroke:none;stroke-width:3.00000024;marker:none;visibility:visible;display:inline;overflow:visible;enable-background:accumulate;font-family:Sans;-inkscape-font-specification:Sans"
       d="M 5.1875 8 C 4.511132 8.1439 3.984919 8.8086 4 9.5 L 4 37.5 C 4.000079 38.2853 4.714623 38.9999 5.5 39 L 42.5 39 C 43.285377 38.9999 43.999921 38.2853 44 37.5 L 44 12.53125 C 43.999921 11.74585 43.285377 11.03135 42.5 11.03125 L 28 11.03125 L 28 9.5 C 27.999921 8.7146 27.285377 8 26.5 8 L 5.5 8 C 5.396212 7.989 5.291288 7.989 5.1875 8 z M 17 17 L 17.09375 17 L 19 17 L 19 19 L 18 19 L 18 20 L 16 20 L 16 18 C 16 17.038 17 17 17 17 z M 20 17 L 22 17 L 22 19 L 20 19 L 20 17 z M 23 17 L 25 17 L 25 19 L 23 19 L 23 17 z M 26 17 L 28 17 L 28 19 L 26 19 L 26 17 z M 29 17 L 31 17 C 31 17 32 17 32 18 L 32 20 L 30 20 L 30 19 L 29 19 L 29 17 z M 16 21 L 18 21 L 18 23 L 16 23 L 16 21 z M 30 21 L 32 21 L 32 23 L 30 23 L 30 21 z M 16 24 L 18 24 L 18 26 L 16 26 L 16 24 z M 30 24 L 32 24 L 32 26 L 30 26 L 30 24 z M 16 27 L 18 27 L 18 29 L 16 29 L 16 27 z M 30 27 L 32 27 L 32 29 L 30 29 L 30 27 z M 16 30 L 18 30 L 18 31 L 19 31 L 19 33 L 17 33 C 17 33 16 33 16 32 L 16 30 z M 30 30 L 32 30 L 32 32 C 32 33 31 33 31 33 L 29 33 L 29 31 L 30 31 L 30 30 z M 20 31 L 22 31 L 22 33 L 20 33 L 20 31 z M 23 31 L 25 31 L 25 33 L 23 33 L 23 31 z M 26 31 L 28 31 L 28 33 L 26 33 L 26 31 z "
       transform="translate(0,1004.3622)"
       id="path3912" />
  </g>
</svg>

<!-- Created with Inkscape (http://www.inkscape.org/) -->
<svg xmlns="http://www.w3.org/2000/svg" viewBox="0 0 48 48">
 <g transform="translate(0,-1004.3622)">
  <path d="m 5.188 8 c -0.676 0.144 -1.203 0.809 -1.188 1.5 l 0 28 c 0 0.785 0.715 1.5 1.5 1.5 l 37 0 c 0.785 0 1.5 -0.715 1.5 -1.5 l 0 -24.969 c 0 -0.785 -0.715 -1.5 -1.5 -1.5 l -14.5 0 l 0 -1.531 c 0 -0.785 -0.715 -1.5 -1.5 -1.5 l -21 0 c -0.104 -0.011 -0.209 -0.011 -0.313 0 z m 11.813 9 l 0.094 0 l 1.906 0 l 0 2 l -1 0 l 0 1 l -2 0 l 0 -2 c 0 -0.962 1 -1 1 -1 z m 3 0 l 2 0 l 0 2 l -2 0 l 0 -2 z m 3 0 l 2 0 l 0 2 l -2 0 l 0 -2 z m 3 0 l 2 0 l 0 2 l -2 0 l 0 -2 z m 3 0 l 2 0 c 0 0 1 0 1 1 l 0 2 l -2 0 l 0 -1 l -1 0 l 0 -2 z m -13 4 l 2 0 l 0 2 l -2 0 l 0 -2 z m 14 0 l 2 0 l 0 2 l -2 0 l 0 -2 z m -14 3 l 2 0 l 0 2 l -2 0 l 0 -2 z m 14 0 l 2 0 l 0 2 l -2 0 l 0 -2 z m -14 3 l 2 0 l 0 2 l -2 0 l 0 -2 z m 14 0 l 2 0 l 0 2 l -2 0 l 0 -2 z m -14 3 l 2 0 l 0 1 l 1 0 l 0 2 l -2 0 c 0 0 -1 0 -1 -1 l 0 -2 z m 14 0 l 2 0 l 0 2 c 0 1 -1 1 -1 1 l -2 0 l 0 -2 l 1 0 l 0 -1 z m -10 1 l 2 0 l 0 2 l -2 0 l 0 -2 z m 3 0 l 2 0 l 0 2 l -2 0 l 0 -2 z m 3 0 l 2 0 l 0 2 l -2 0 l 0 -2 z" transform="translate(0,1004.3622)" style="visibility:visible;fill:#ef5350;fill-opacity:1;stroke:none;display:inline;color:#000;fill-rule:nonzero"/>
 </g>
</svg>
